X:1
T: Cupid Disarm'd
N:
C:
S:
A:
O:
R:
M:6/8
K:Am
I:speed 150
%W: A1
% voice 1 (1 lines, 40 notes)
K:Am
M:6/8
L:1/16
E2 |A2 c2 A2 B2 d2 B2 c6 z4 B2 c2 e2 c2 d2 f2 d2 e6 z4 f g |a2 f2 d2 g2 e2 c2 B2 e2 A2 ^G2 B2 E2 A2 e2 d2 c4 B2 c6c4 E2 |
%W: A2
% voice 1 (1 lines, 40 notes)
A2 c2 A2 B2 d2 B2 c6 z4 B2 c2 e2 c2 d2 f2 d2 e6 z4 f g |a2 f2 d2 g2 e2 c2 B2 e2 A2 ^G2 B2 E2 A2 e2 d2 c4 B2 c6c4 e f |
%W: B1
% voice 1 (1 lines, 40 notes)
g2 e2 c2 c'2 g2 e2 f2 a2 e2 d4 c2 d2 B2 G2 g2 e2 c2 d2 f2 a2 d3 c B2 |A4 z2 G4 z2 F4 z2 E4 f2 e2 a2 c2 B4 A2 A6A4 e f |
%W: B2
% voice 1 (1 lines, 38 notes)
g2 e2 c2 c'2 g2 e2 f2 a2 e2 d4 c2 d2 B2 G2 g2 e2 c2 d2 f2 a2 d3 c B2 |A4 z2 G4 z2 F4 z2 E4 f2 e2 a2 c2 B4 A2 A6A4 ||
